packages/kaspersky-hexa-ui-icons/src/iconsSVGs/32/ShieldOKSolid.svg

<svg width="32" height="32" viewBox="0 0 32 32" fill="none" xmlns="http://www.w3.org/2000/svg">
<g clip-path="url(#clip0_7175_1779)">
<path fill-rule="evenodd" clip-rule="evenodd" d="M4.6921 5.44023L13.9556 0.48478C15.2426 -0.161593 16.7574 -0.161593 18.0444 0.48478L27.3079 5.44023C28.0823 5.82915 28.5714 6.62415 28.5714 7.49379V16.5555C28.5714 18.1855 28.1911 19.9786 27.4286 21.7143C24.5714 28 18.2857 31.9999 16 31.9999C13.7143 31.9999 7.35781 28 4.57144 21.7143C3.7832 19.9361 3.42859 18.1031 3.42859 16.4635V7.49379C3.42859 6.62415 3.91774 5.82915 4.6921 5.44023ZM22.4213 13.2786C22.8118 12.8881 22.8118 12.255 22.4213 11.8644C22.0308 11.4739 21.3976 11.4739 21.0071 11.8644L14.857 18.0145L12.1356 15.293C11.745 14.9025 11.1119 14.9025 10.7214 15.293C10.3308 15.6835 10.3308 16.3167 10.7214 16.7072L14.1499 20.1358C14.5405 20.5263 15.1736 20.5263 15.5641 20.1358L22.4213 13.2786Z" fill="black"/>
</g>
<defs>
<clipPath id="clip0_7175_1779">
<rect width="32" height="31.9999" fill="white"/>
</clipPath>
</defs>
</svg>

<svg xmlns="http://www.w3.org/2000/svg" width="32" height="32" fill="none" viewBox="0 0 32 32"><path fill="#000" fill-rule="evenodd" d="M4.6922 5.4402 13.9557.4848a4.553 4.553 0 0 1 4.0888 0l9.2635 4.9554c.7744.389 1.2635 1.184 1.2635 2.0536v9.0617c0 1.63-.3803 3.4231-1.1428 5.1588C24.5715 28 18.2858 31.9999 16.0001 31.9999S7.3579 28 4.5716 21.7143c-.7883-1.7782-1.1429-3.6112-1.1429-5.2508V7.4938c0-.8696.4892-1.6646 1.2635-2.0536m17.7292 7.8384c.3905-.3905.3905-1.0236 0-1.4142s-1.0237-.3905-1.4142 0l-6.15 6.1501-2.7215-2.7215c-.3905-.3905-1.0237-.3905-1.4142 0s-.3905 1.0237 0 1.4142l3.4286 3.4286c.3905.3905 1.0236.3905 1.4142 0z"/></svg>
